icon/lg/intellij-idea.svg

<?xml version="1.0" encoding="UTF-8"?>
<svg viewBox="0 0 256 256" version="1.1" xmlns="http://www.w3.org/2000/svg" preserveAspectRatio="xMidYMid" height="1em" width="1em">
  <defs>
    <linearGradient x1="37.0363882%" y1="51.0173323%" x2="178.130095%" y2="41.8613414%" id="intellijLinearGradient-1">
      <stop stop-color="#FC801D" offset="9%"/>
      <stop stop-color="#B07F61" offset="23%"/>
      <stop stop-color="#577DB3" offset="41%"/>
      <stop stop-color="#1E7CE6" offset="53%"/>
      <stop stop-color="#087CFA" offset="59%"/>
    </linearGradient>
    <linearGradient x1="73.5573972%" y1="114.759971%" x2="35.5746707%" y2="1.07475519%" id="intellijLinearGradient-2">
      <stop stop-color="#FE2857" offset="0%"/>
      <stop stop-color="#CB3979" offset="8%"/>
      <stop stop-color="#9E4997" offset="16%"/>
      <stop stop-color="#7557B2" offset="25%"/>
      <stop stop-color="#5362C8" offset="34%"/>
      <stop stop-color="#386CDA" offset="44%"/>
      <stop stop-color="#2373E8" offset="54%"/>
      <stop stop-color="#1478F2" offset="66%"/>
      <stop stop-color="#0B7BF8" offset="79%"/>
      <stop stop-color="#087CFA" offset="100%"/>
    </linearGradient>
    <linearGradient x1="28.5510351%" y1="23.6142262%" x2="81.8011925%" y2="129.75542%" id="intellijLinearGradient-3">
      <stop stop-color="#FE2857" offset="0%"/>
      <stop stop-color="#FE295F" offset="8%"/>
      <stop stop-color="#FF2D76" offset="21%"/>
      <stop stop-color="#FF318C" offset="30%"/>
      <stop stop-color="#EA3896" offset="38%"/>
      <stop stop-color="#B248AE" offset="55%"/>
      <stop stop-color="#5A63D6" offset="79%"/>
      <stop stop-color="#087CFA" offset="100%"/>
    </linearGradient>
  </defs>
  <g>
    <polygon fill="url(#intellijLinearGradient-1)" points="40.5333333 180.56 2.88 150.826667 25.04 109.786667 58.3466667 120.933333"/>
    <polygon fill="#087CFA" points="256 68.24 251.386667 216.506667 152.773333 256 99.0666667 221.333333"/>
    <polygon fill="url(#intellijLinearGradient-2)" points="256 68.24 207.2 115.84 144.533333 38.96 175.466667 4.18666667"/>
    <polygon fill="url(#intellijLinearGradient-3)" points="99.0666667 221.333333 20.64 249.68 37.0666667 192.16 58.3466667 120.933333 0 101.413333 37.0666667 0 120.853333 9.89333333 207.2 115.84"/>
    <polygon fill="#000000" points="49.1466667 48 209.146667 48 209.146667 208 49.1466667 208"/>
    <path d="M69.0933333,177.76 L129.093333,177.76 L129.093333,187.76 L69.0933333,187.76 L69.0933333,177.76 Z M99.04,78.9866667 L99.04,68.0533333 L69.2,68.0533333 L69.2,78.9866667 L77.5733333,78.9866667 L77.5733333,116.746667 L69.2,116.746667 L69.2,127.68 L99.04,127.68 L99.04,116.746667 L90.6933333,116.746667 L90.6933333,78.9866667 L99.04,78.9866667 Z M127.466667,128.426667 L127.653333,128.533333 C123.58682,128.664911 119.554999,127.746501 115.946667,125.866667 C112.982684,124.270842 110.342051,122.136632 108.16,119.573333 L116.4,110.373333 C117.905422,112.072041 119.647771,113.544954 121.573333,114.746667 C123.293901,115.813234 125.282449,116.368178 127.306667,116.346667 C129.496863,116.452013 131.62583,115.606259 133.146667,114.026667 C134.7529,111.854759 135.511448,109.171394 135.28,106.48 L135.28,68 L148.613333,68 L148.613333,107.066667 C148.672828,110.230814 148.176405,113.380842 147.146667,116.373333 C145.369996,121.414006 141.364067,125.351037 136.293333,127.04 C133.451643,128.001896 130.466416,128.470875 127.466667,128.426667 Z" fill="#FFFFFF"/>
  </g>
</svg>

<svg width="256" height="256" xmlns="http://www.w3.org/2000/svg" preserveAspectRatio="xMidYMid"><defs><linearGradient x1="37.036%" y1="51.017%" x2="178.13%" y2="41.861%" id="a"><stop stop-color="#FC801D" offset="9%"/><stop stop-color="#B07F61" offset="23%"/><stop stop-color="#577DB3" offset="41%"/><stop stop-color="#1E7CE6" offset="53%"/><stop stop-color="#087CFA" offset="59%"/></linearGradient><linearGradient x1="73.557%" y1="114.76%" x2="35.575%" y2="1.075%" id="b"><stop stop-color="#FE2857" offset="0%"/><stop stop-color="#CB3979" offset="8%"/><stop stop-color="#9E4997" offset="16%"/><stop stop-color="#7557B2" offset="25%"/><stop stop-color="#5362C8" offset="34%"/><stop stop-color="#386CDA" offset="44%"/><stop stop-color="#2373E8" offset="54%"/><stop stop-color="#1478F2" offset="66%"/><stop stop-color="#0B7BF8" offset="79%"/><stop stop-color="#087CFA" offset="100%"/></linearGradient><linearGradient x1="28.551%" y1="23.614%" x2="81.801%" y2="129.755%" id="c"><stop stop-color="#FE2857" offset="0%"/><stop stop-color="#FE295F" offset="8%"/><stop stop-color="#FF2D76" offset="21%"/><stop stop-color="#FF318C" offset="30%"/><stop stop-color="#EA3896" offset="38%"/><stop stop-color="#B248AE" offset="55%"/><stop stop-color="#5A63D6" offset="79%"/><stop stop-color="#087CFA" offset="100%"/></linearGradient></defs><path fill="url(#a)" d="M40.533 180.56 2.88 150.827l22.16-41.04 33.307 11.146z"/><path fill="#087CFA" d="m256 68.24-4.613 148.267L152.773 256l-53.706-34.667z"/><path fill="url(#b)" d="m256 68.24-48.8 47.6-62.667-76.88 30.934-34.773z"/><path fill="url(#c)" d="M99.067 221.333 20.64 249.68l16.427-57.52 21.28-71.227L0 101.413 37.067 0l83.786 9.893L207.2 115.84z"/><path d="M49.147 48h160v160h-160z"/><path d="M69.093 177.76h60v10h-60v-10ZM99.04 78.987V68.053H69.2v10.934h8.373v37.76H69.2v10.933h29.84v-10.933h-8.347v-37.76h8.347Zm28.427 49.44.186.106a23.68 23.68 0 0 1-11.706-2.666 27.093 27.093 0 0 1-7.787-6.294l8.24-9.2a23.627 23.627 0 0 0 5.173 4.374 10.667 10.667 0 0 0 5.734 1.6 7.6 7.6 0 0 0 5.84-2.32 11.093 11.093 0 0 0 2.133-7.547V68h13.333v39.067a27.04 27.04 0 0 1-1.466 9.306 17.307 17.307 0 0 1-10.854 10.667 26.32 26.32 0 0 1-8.826 1.387Z" fill="#FFF"/></svg>
